packages/gestalt-icons-android/vr-theme/ic_vr_design_gestalt.svg

<svg width="24" height="24" viewBox="0 0 24 24" fill="none" xmlns="http://www.w3.org/2000/svg">
<path fill-rule="evenodd" clip-rule="evenodd" d="M15.0134 19.1937C13.8601 19.2932 12.673 18.8451 11.8756 17.8705L11.7263 17.688L7.9212 21.493C7.642 21.7722 7.2864 21.9625 6.89922 22.04L2.93155 22.8335C1.88197 23.0434 0.956589 22.118 1.16651 21.0684L1.96004 17.1008C2.03748 16.7136 2.22779 16.358 2.50699 16.0788L6.85347 11.7323L1.09196 4.69048C0.27515 3.69216 0.347715 2.23732 1.25981 1.32522C2.21729 0.367742 3.76155 0.342012 4.7504 1.26706L11.244 7.34175L16.8787 1.70711C18.0503 0.535532 19.9497 0.535535 21.1213 1.70711L22.2929 2.87868C23.4645 4.05025 23.4645 5.94975 22.2929 7.12132L21.1213 8.29289C21.1208 8.2934 21.1203 8.2939 21.1198 8.2944L16.8387 12.5755L17.1865 12.9008C18.0724 13.7296 18.4505 14.8935 18.3142 16.0079C18.3939 16.0027 18.4744 16 18.5556 16C20.5192 16 22.1111 17.567 22.1111 19.5V20.6264C22.1111 20.7535 22.1274 20.879 22.1587 21L22.1634 21.0174C22.2088 21.1844 22.2832 21.3426 22.3833 21.4846C22.4342 21.5567 22.4917 21.6247 22.5556 21.6875L22.8159 21.9438C22.9337 22.0597 23 22.2181 23 22.3833C23 22.7239 22.7239 23 22.3833 23H18.5556C16.5919 23 15 21.433 15 19.5C15 19.3968 15.0045 19.2946 15.0134 19.1937ZM20.8787 5.70711C21.2692 5.31658 21.2692 4.68342 20.8787 4.29289L19.7071 3.12132C19.3166 2.7308 18.6834 2.7308 18.2929 3.12132L17.1213 4.29289C16.7308 4.68342 16.7308 5.31658 17.1213 5.70711L18.2929 6.87868C18.6832 7.26901 19.3159 7.2692 19.7065 6.87927C19.7063 6.87946 19.7067 6.87907 19.7065 6.87927L20.8787 5.70711ZM15.7065 7.12071L15 6.41421L3.9212 17.493L3.27476 20.7252L6.50699 20.0788L17.5858 9L15.7065 7.12071C15.7067 7.12091 15.7063 7.12051 15.7065 7.12071ZM9.82904 8.75675L3.38409 2.72761C3.18294 2.53943 2.8688 2.54466 2.67402 2.73944C2.48848 2.92498 2.47372 3.22093 2.63988 3.42401L8.27473 10.3111L9.82904 8.75675ZM13.1475 16.2667L13.4235 16.604C14.0397 17.3571 15.1715 17.4136 15.8595 16.7255C16.517 16.068 16.4992 14.9966 15.8201 14.3613L15.4237 13.9905L13.1475 16.2667ZM17 19.5C17 20.2989 17.6666 21 18.5556 21H20.1312C20.1179 20.8765 20.1111 20.7518 20.1111 20.6264V19.5C20.1111 18.7011 19.4445 18 18.5556 18C17.6666 18 17 18.7011 17 19.5Z" fill="black"/>
</svg>

<svg xmlns="http://www.w3.org/2000/svg" width="24" height="24"><path d="M15.01 19.2a3.6 3.6 0 0 1-3.13-1.33l-.15-.18-3.8 3.8a2 2 0 0 1-1.03.55l-3.97.8a1.5 1.5 0 0 1-1.76-1.77l.79-3.97a2 2 0 0 1 .55-1.02l4.34-4.35L1.1 4.7a2.51 2.51 0 0 1 3.66-3.42l6.5 6.07 5.63-5.63a3 3 0 0 1 4.24 0l1.17 1.17a3 3 0 0 1 0 4.24L21.12 8.3l-4.28 4.29.35.32c.88.83 1.26 2 1.12 3.1h.25a3.53 3.53 0 0 1 3.55 3.5v1.13q0 .18.05.37v.02a1.5 1.5 0 0 0 .4.67l.26.25a.62.62 0 0 1-.44 1.06h-3.82A3.53 3.53 0 0 1 15 19.2m5.87-13.5a1 1 0 0 0 0-1.4L19.7 3.11a1 1 0 0 0-1.42 0L17.12 4.3a1 1 0 0 0 0 1.42l1.17 1.17a1 1 0 0 0 1.42 0zM15.7 7.13l-.71-.7L3.92 17.48l-.65 3.24 3.24-.65L17.59 9zM9.83 8.76 3.38 2.73a.51.51 0 0 0-.74.7l5.63 6.88zm3.32 7.5.27.34a1.64 1.64 0 1 0 2.4-2.24l-.4-.37zM17 19.5c0 .8.67 1.5 1.56 1.5h1.57l-.02-.37V19.5c0-.8-.67-1.5-1.55-1.5-.9 0-1.56.7-1.56 1.5"/></svg>
